X: 1
T: Jimmy Lyon's  Strathspey
%D:
R: strathspey
S: Fiddle Hell Online 2022-4-8 handout for Jeanne Freeman's workshop
Z: 2022 John Chambers <jc:trillian.mit.edu>
M: 4/4
L: 1/8
K: A
[|\
A>ag>a e<cA>c | D>d c>d B<EG>B | A>af>a e<cA>c | E>BG>B A<EC>E |
A>ag>a e<cA>c | D>d c>d B<EG>B | A>af>a e<cA>c | E>BG>B A2 (3agf ||
||\
e<cc>e f<dd>e | d>cB>a g<ee>f | e<cc>e f<dd>f | (3efe (3dcB (3Ace (3agf |
e<cc>e f<dd>e | d>cB>a g<ee>f | e<cc>e f<dd>e | (3fga g>b a>fe>c |]
